!!!OTL: NUN SO REIS ICH WEG VON HIER
!!!ARE: Europa, Mitteleuropa, Deutschland
!!!SCT: E0791
!!!YEM: Copyright 1995, estate of Helmut Schaffrath.
**kern
*ICvox
*Ivox
*M4/4
*k[f#c#]
*D:
=1
{4.d
8f#
4a
4dd
=2
4b
8dd
8b
2a}
=3
{4.g
8a
4f#
4d
=4
2e
4d
4r}
=5
{4.d
8f#
4a
4dd
=6
4b
8dd
8b
2a}
=7
{4.g
8a
4f#
4d
=8
2e
4d
4r}
=9
{4a
4a
4g
4g
=10
4f#
8a
8f#
2e}
=11
{4a
4a
4g
4g
=12
4f#
8a
8f#
2e}
=13
{4.d
8f#
4a
4dd
=14
4b
8dd
8b
2a}
=15
{4.g
8a
4f#
4d
=16
2e
4d
4r}
==
!!!AGN: Abschieds - Lied, Liebe
!!!ONB: ESAC (Essen Associative Code) Database: ERK2
!!!AMT: simple quadruple
!!!AIN: vox
!!!EED: Helmut Schaffrath
!!!EEV: 1.0
*-
